!!!COM:	Bach, Johann Sebastian
!!!OMV:	Was Gott tut, das ist wohlgetan
!!!OTL:	Was Gott tut, das ist wohlgetan
**kern	**fb	**kern	**kern	**kern	**kern	**kern
*I"Voice	*	*I"Voice	*I"Voice	*I"Voice	*I"Horn in G	*I"Horn in G
*I'V	*	*I'V	*I'V	*I'V	*I'G Hn.	*I'G Hn.
*clefF4	*	*clefGv2	*clefG2	*clefG2	*clefG2	*clefG2
*	*	*	*	*	*Trd3c5	*Trd3c5
*k[f#]	*	*k[f#]	*k[f#]	*k[f#]	*k[f#]	*k[f#]
*M4/4	*	*M4/4	*M4/4	*M4/4	*M4/4	*M4/4
4GG	.	8GL	8BL	4d	4c	4g
.	.	8AJ	8cJ	.	.	.
=2	=2	=2	=2	=2	=2	=2
4G	.	4B	4d	4g	4e	4cc
4F#	6	4A	4d	4a	4g	4dd
8EL	.	4e	4g	4b	4cc	4ee
8DJ	.	.	.	.	.	.
4C	.	8eL	4g	8cc	4cc	8ffn
.	.	8cJ	.	16ddLL	.	16ggLL
.	.	.	.	16eeJJ	.	16aaJJ
=3	=3	=3	=3	=3	=3	=3
4D	6 4	8BL	8gL	4dd	16ccLL	4gg
.	.	.	.	.	16ddJ	.
.	.	8GJ	8eJ	.	8eeJ	.
4D	5 3	4A	4f#	8ccL	8ddL	8ffnL
.	.	.	.	8bJ	8gJ	8eeJ
4GG;	.	4G;	4d;	4b;	4cc;	4ee;
4C	8	4G	8cL	4ee	16ccLL	4aa
.	.	.	.	.	16ddJ	.
.	7	.	8BJ	.	8eeJ	.
=4	=4	=4	=4	=4	=4	=4
4D	.	4F#	4A	4dd	8ddL	4gg
.	.	.	.	.	8g	.
8EL	6	8GL	4e	4cc	8cc	4ffn
8F#J	7 5	8AJ	.	.	8gJ	.
4G	.	8BL	4d	4b	4c	4ee
.	.	8AJ	.	.	.	.
4C	6 5	4G	4e	16aLL	4r	16ddLL
.	.	.	.	16bJ	.	16eeJ
.	.	.	.	8ccJ	.	8ffJ
=	=	=	=	=	=	=
4D	6 4	4G	2d	4b	8r	4ee
.	.	.	.	.	16gLL	.
.	.	.	.	.	16eJJ	.
4DD	5 3	4F#	.	8aL	8gL	8ddL
.	.	.	.	8gJ	8gJ	8ccJ
4GG;	.	4B;	4d;	4g;	4e;	4cc;
=5:|!	=5:|!	=5:|!	=5:|!	=5:|!	=5:|!	=5:|!
4G	.	4B	4g	4dd	4r	4gg
=6	=6	=6	=6	=6	=6	=6
!!linebreak:original
4C	8	8cL	4g	4ee	1r;	4aa
.	7	8BJ	.	.	.	.
4C#X	6	4A	8aL	4ee	.	4aa
.	5	.	8gJ	.	.	.
4D;	.	4d;	4f#;	4a;	.	4dd;
8DL	.	4d	4f#	4a	.	4dd
8CnJ	.	.	.	.	.	.
=7	=7	=7	=7	=7	=7	=7
8BBL	6_	8dL	8gL	4dd	1r;	4gg
8AAJ	.	8cJ	8aJ	.	.	.
4BB	.	4d	8gL	4dd	.	4gg
.	nr5	.	8fnJ	.	.	.
4C;	.	4c;	4e;	4g;	.	4cc;
4GG	.	4d	4g	4b	.	4ee
=8	=8	=8	=8	=8	=8	=8
4.D	.	8dL	8gL	4a	2r	4dd
.	.	8AJ	8f#J	.	.	.
.	.	8BL	4e	4g	.	4cc
8C#X	6 5	8AJ	.	.	.	.
8DL	9	4A	8eL	4f#	8r	4g
8F#J	6	.	8dJ	.	8ddL	.
8BBL	6	8GL	4d	8gL	8ee	[4gg
8AAJ	6 4	8AJ	.	8f#J	8gJ	.
=9	=9	=9	=9	=9	=9	=9
8GGL	6 5	4B	4d	2e	4cc	4gg]
8EEJ	.	.	.	.	.	.
4AA	8 #	8AL	4c#X	.	4dd	4ff#
.	7	8GJ	.	.	.	.
4D;	.	4F#;	4A;	4d;	4dd;	4gg;
4BB	8	4f#	8BL	4dd	[4ee	4gg
.	7	.	8AJ	.	.	.
=10	=10	=10	=10	=10	=10	=10
8EL	6	4e	8GL	4cc	8ee]	4ffn
8F#J	7 5	.	8AJ	.	4dd	.
[4G	5	8dL	8BL	4b	.	4ee
.	6	8eJ	8cnJ	.	8cc	.
8GL]	5 2	4A	4d	4a	4g	4dd
8F#J	6	.	.	.	.	.
8GL	.	4G	8dL	8bL	4r	8eeL
8EJ	6	.	8eJ	8ccJ	.	8ffJ
=11	=11	=11	=11	=11	=11	=11
!!pagebreak:original
8CL	6 5	4G	4e	2a	8r	2dd
8AAJ	.	.	.	.	8cc	.
4D	.	4F#	4d	.	16gLL	.
.	.	.	.	.	16eJ	.
.	.	.	.	.	8gJ	.
4GG;	.	4B;	4d;	4g;	4e;	4cc;
=||	=||	=||	=||	=||	=||	=||
*-	*-	*-	*-	*-	*-	*-
!!!system-decoration: s1,s2,s3,s4,s5,s6
